!!!COM: MacDowell, Edward
!!!CDT: 1860/12/18/-1908/01/23/
!!!OPR: 12 Etudes
!!!ODT: 1889///-1890///
!!!OTL: Romanze
!!!OPS: Op. 39
!!!ONM: No. 3
!!!OMD: Andantino
**kern	**kern	**dynam
*staff2	*staff1	*staff1/2
*Ipiano	*Ipiano	*Ipiano
*clefF4	*clefG2	*clefG2
*k[f#c#]	*k[f#c#]	*k[f#c#]
*met(C)	*met(C)	*met(C)
*M4/4	*M4/4	*M4/4
*MM118	*MM118	*MM118
=1-	=1-	=1-
*	*^	*
2DD/ 2AA/	4r	2A\	p
.	(2a'/	.	.
2FF#/ 2D/	.	2A\	.
.	4a'/)	.	.
=2	=2	=2	=2
2EE/ 2AA/	4.c#/ (4.a/	2.G\ 2.A\	.
.	8e/)	.	.
2GG/ 2AA/ [2E/	([2e/	.	.
.	.	4B\	.
=3	=3	=3	=3
*^	*	*	*
4E/]	1FF#	4e/]	1A	.
2D/	.	4d/	.	.
.	.	4f#/	.	.
&(4F#/&)	.	4a/)	.	.
*	*	*v	*v	*
=4	=4	=4	=4
2GG/ 2C#/ 2E/	2r	4.B/ (4.b/	.
.	.	8B/	.
&(2D#/&)	4FF#\	(2A/)	.
.	4FFn\	.	.
*v	*v	*	*
=5	=5	=5
*	*^	*
2EE/ 2E/	(4B/)	2G\	.
.	4g/	.	.
2GG/ 2E/	4d#/	2B\	.
.	4e/)	.	.
=6	=6	=6	=6
(2GG#/ 2E#/	(4.cc#/	2c#\	.
.	8b/)	.	.
2AA/) 2F#/	(4b/	2d\	.
.	4f#/)	.	.
*	*v	*v	*
=7	=7	=7
*^	*	*
2AA\	4r	2B/ 2c#/ (2g/	.
.	(4E/	.	.
4AA\ 4F#\	2r	4A/ 4c#/ 4f#/	.
4AA\ 4G\)	.	4A/ 4c#/ 4e/)	.
*v	*v	*	*
=8	=8	=8
*	*^	*
(2FF#/ 2D/	(4.b/	2cn\ 2d\	.
.	8a/	.	.
2GG/) 2D/	2B/ 2d/	4A\)	.
.	.	&(4G\&)	.
*	*v	*v	*
=9	=9	=9
*^	*	*
4r	2EE\	2B/ (2g/	.
(4C#/	.	.	.
4FF#/ 4D/	2r	4A#/ 4f#/	.
4GG/ 4C#/)	.	4B/ 4e/)	.
*v	*v	*	*
=10	=10	=10
*	*^	*
1GG# 1E#	4.cc#/	(2d\	.
.	8b/	.	.
.	2b/	4c#\	.
.	.	4d\)	.
=11	=11	=11	=11
*^	*	*	*
(2F#/	1AA	4.b/	2d\	.
.	.	8f#/	.	.
4B/	.	4c#/ 4g/	2r	.
4A/)	.	4c#/ 4f#/	.	.
*v	*v	*	*	*
*	*v	*v	*
=12	=12	=12
1DD 1AA	2G/ 2c#/ (2e/	.
.	2F#/ 2d/)	.
=13	=13	=13
*k[b-e-]	*k[b-e-]	*k[b-e-]
8GG/ 8D/	8G/ 8B-/ 8d/	ppp
8r	8r	.
8AA/ 8D/	8F#/ 8c/ 8d/	.
8r	8r	.
8BB-/ 8D/	8G/ 8d/	.
8r	8r	.
8GG/ 8D/	8B-/ 8g/	.
8r	8r	.
=14	=14	=14
*	*^	*
(4C/	(8f/L	4A\	.
.	8g/J	.	.
8AA/)	4r	&(8G/&) 8c/ 8e-/)	.
8r	.	8r	.
8D\	4r	8F#/ 8c/ 8d/	.
8r	.	8r	.
8GG/ 8D/	4r	8G/ 8B-/	.
8r	.	8r	.
*	*v	*v	*
=15	=15	=15
8FF/ 8E-/	8A/ 8c/	.
8r	8r	.
8FF#/ 8D/	8A/ 8B-/ 8d/	.
8r	8r	.
8GG/ 8D/	8G/ 8B-/	.
8r	8r	.
8BB-/ 8D/	8En/ 8G/	.
8r	8r	.
=16	=16	=16
*	*^	*
2AA/ (2C#/	4.A/	(2En\	.
.	8B-/	.	.
8D\)	4r	2F#/) &(2A/&)	.
8r	.	.	.
8Cn/	4r	.	.
8r	.	.	.
*	*v	*v	*
=17	=17	=17
8BB-/ 8D/	8G/ 8d/	pp
8r	8r	.
8AA/ 8D/	8F#/ 8c/ 8d/	.
8r	8r	.
8GG/ 8D/	8B-/ 8d/	.
8r	8r	.
8BB-/ 8D/	8d/ 8g/	.
8r	8r	.
=18	=18	=18
*	*^	*
(4C/	8f/L	(4A\	.
.	8g/J	.	.
8AA/)	4r	8G/) 8c/ &(8e-/&)	.
8r	.	8r	.
8D\	4r	8F#/ 8d/	.
8r	.	8r	.
8GG/ 8D/	4r	8G/ 8B-/	.
8r	.	8r	.
*	*v	*v	*
=19	=19	=19
8FF/ 8E-/	8A/ 8c/	.
8r	8r	.
8FF#/ 8D/	8A/ 8B-/ 8d/	.
8r	8r	.
8GG/ 8D/	8G/ 8B-/	.
8r	8r	.
8BB-/ 8D/	8G/	.
8r	8r	.
=20	=20	=20
2DD/ (2C/	(2F#/ 2A/	.
8GG/ 8BB-/)	8G/)	.
8r	8r	.
8D\	4r	.
8r	.	.
=21	=21	=21
*	*^	*
8CC#/ 8C#/	2A/ 2a/	8en\	.
8r	.	8r	.
8EEn/ 8En/	.	8g\	.
8r	.	8r	.
8DD/ 8D/	2A/ 2a/	8f\	.
8r	.	8r	.
8FF/ 8F/	.	8d\	.
8r	.	8r	.
=22	=22	=22	=22
8EEn/ 8En/	2A\ 2a\	8c#\	.
8r	.	8r	.
8GG/ 8G/	.	8en\	.
8r	.	8r	.
8FF/ 8F/	2A\ 2a\	8d\	.
8r	.	8r	.
8DD/ 8D/	.	8f\	.
8r	.	8r	.
=23	=23	=23	=23
8EEn/ 8En/	4.A/ (4.a/	8g\	.
8r	.	8r	.
8GG/ 8G/	.	8en\	.
8r	8B-/ 8b-/	8r	.
8FF/ 8F/	4A/ 4a/	8d\	.
8r	.	8r	.
8BBB-/ 8BB-/	4G/ 4g/)	8d\	.
8r	.	8r	.
=24	=24	=24	=24
8GGG/ 8GG/	8B-/	2F\ (2f\	.
8r	8r	.	.
8BBB-/ 8BB-/	8d/	.	.
8r	8r	.	.
8AAA/ 8AA/	8c#/	2En\ 2en\)	.
8r	8r	.	.
8GGG/ 8GG/	8B-/	.	.
8r	8r	.	.
*	*v	*v	*
=25	=25	=25
8FFF/ 8FF/	8D/ 8A/ 8d/	pp
8r	8r	.
8GGG/ 8GG/	8D/ 8B-/ 8d/	.
8r	8r	.
8AAA/ 8AA/	8D/ 8A/ 8d/	.
8r	8r	.
8BBB-/ 8BB-/	8G/ 8d/ 8g/	.
8r	8r	.
=26	=26	=26
*	*^	*
8AAA/ 8AA/	4A\ 4c#\	(8f/L	.
8r	.	8g/J	.
8GGG/ 8GG/	&(8B-\&) 8c#\)	8en/	.
8r	8r	8r	.
8FFF/ 8FF/	4r	8A/ 8d/	.
8r	.	8r	.
8AAA/ 8AA/	4r	8F/ 8A/	.
8r	.	8r	.
*	*v	*v	*
*	*clefF4	*clefF4
=27	=27	=27
4r	2D-\ 2F\ (2B-\	.
8GGG/ 8GG/	.	.
8r	.	.
4r	2D-\ 2En\ 2B-\	ppp
8GGG/ 8GG/	.	.
8r	.	.
=28	=28	=28
4r	2Dn\ 2G\ 2B-\	.
8AAA/ 8AA/	.	.
8r	.	.
4r	2C#\ 2En\ (2A\)	.
8GGG/ 8GG/	.	.
8r	.	.
=29	=29	=29
*k[f#c#]	*clefG2	*clefG2
*	*k[f#c#]	*k[f#c#]
*	*^	*
(2FFF#/ 2FF#/	4r	2A\)	.
.	(4a/	.	.
2AAA/) 2AA/	4f#/	2A\	.
.	4a/)	.	.
=30	=30	=30	=30
2EEE/ 2GGG/ 2EE/	(4.a/	2G\ 2A\ 2c#\	.
.	8e/	.	.
&(2GGG/&) 2GG/	[2e/)	(4A\ 4c#\	.
.	.	4B\	.
=31	=31	=31	=31
2FFF#/ 2FF#/	4e/]	2A\)	.
.	4d/	.	.
2D\	4f#/	2A\	.
.	&(4a/&)	.	.
*	*v	*v	*
=32	=32	=32
*^	*	*
2GG/ 2C#/ (2E/	2r	4.B/ (4.b/	.
.	.	8B/	.
2D#/)	4FF#\	2A/ [2B/)	.
.	&(4FFn\&)	.	.
*v	*v	*	*
=33	=33	=33
*	*^	*
2EE/ 2E/	(4B/]	2G\	.
.	4g/	.	.
2GG/ 2E/	4d#/	2B\	.
.	4e/)	.	.
=34	=34	=34	=34
(2GG/ 2E/	(4.cc#/	2c#\	.
.	8b/)	.	.
2AA/) 2F#/	(4b/	2d\	.
.	4f#/)	.	.
*	*v	*v	*
=35	=35	=35
*^	*	*
4r	2AA\	(2B/ 2c#/ 2g/	.
(4E/	.	.	.
4r	4AA\ 4F#\	4A/ 4c#/ 4f#/	.
4r	4AA\ 4G\)	4A/) 4c#/ 4e/	.
*v	*v	*	*
=36	=36	=36
*	*^	*
(2FF#/ 2D/	(4.b/	2cn\ 2d\	.
.	8a/	.	.
2GG/) 2D/	2B/ 2d/	4A\)	.
.	.	&(4G\&)	.
*	*v	*v	*
=37	=37	=37
*^	*	*
4r	(2EE\	(2B/ 2g/	.
4C#/	.	.	.
4D/	4FF#\	4A#/ 4f#/	.
&(4C#/&)	4GG\)	4B/) 4e/	.
=38	=38	=38	=38
*	*	*^	*
2GG#\ 2E#\	(4.c#/	(4.cc#/	2d\ 2e#\	.
.	8B/)	8b/)	.	.
(6en'\	2r	6een'/	2e#\ 2g#\	.
6d'\	.	6dd'/	.	.
6B'\)	.	6b'/	.	.
*	*	*v	*v	*
=39	=39	=39	=39
4r	[1AAA) [1AA	4.b\ 4.cc#\ (4.ggn\	ff
8r	.	.	.
8A\ 8c#\ (8f#\	.	8a\ 8cc#\ 8ff#\	.
4Gn\ 4c#\ 4e\	.	4a\ 4cc#\ 4ee\	.
4A\ 4c#\ 4f#\)	.	4a\ 4cc#\ 4ff#\)	.
=40	=40	=40	=40
2F#/ 2B/ (2d/	4AAA\] 4AA\]	(2f#/ 2b/ 2dd/	.
.	2AAA\ 2AA\	.	.
2F#/ 2A/)	.	2d/) 2f#/ 2a/	.
.	4AAA\ 4AA\	.	.
=41	=41	=41	=41
4r	2.AA\	(4.B-/ 4.c#/ 4.g/	.
(8E/L	.	.	.
8F#/J	.	8A/ 8c#/ 8f#/	.
4G/)	.	4A/ 4c#/ 4e/	.
4r	4AAA/	4A/) 4c#/ 4f#/	.
*v	*v	*	*
=42	=42	=42
4AA/	2F#/ 2Bn/ (2d/	.
2AAA/	.	.
.	2Fn/ 2G#/ 2B/)	.
4AAA/	.	.
=43	=43	=43
4.AA/	1Gn 1B- 1c# (1g	.
8AAA/	.	.
4AAA/	.	.
[4AAA/	.	.
=44	=44	=44
*	*^	*
4AAA/]	1G 1c#	2B-\	.
2AAA/	.	.	.
.	.	&(2A\&))	.
4AAA/	.	.	.
=45	=45	=45	=45
2DD/ 2AA/	(4d/	2F#\	.
.	2a/	.	.
2FF#/ 2D/	.	2A\	.
.	4a/)	.	.
*	*v	*v	*
=46	=46	=46
*^	*	*
4r	1EE	1G 1A 1c# 1a	pp
8r	.	.	.
8AA'/	.	.	.
4AA'/	.	.	.
4AA'/	.	.	.
*v	*v	*	*
=47	=47	=47
*	*^	*
(2DD/ 2AA/	(4F#/	2F#\	.
.	2a/	.	.
2FF#/) 2D/	.	&(2A\&)	.
.	4a/)	.	.
*	*v	*v	*
=48	=48	=48
*^	*	*
4r	1EE	1G 1A 1c# 1a	.
8r	.	.	.
8AA/	.	.	.
4AA/	.	.	.
4AA/	.	.	.
*v	*v	*	*
=49	=49	=49
*	*^	*
[1DD [1AA [1F#	[1ff#	[1A [1d [1a	ppp
=50	=50	=50	=50
2DD/] 2AA/] 2F#/]	2ff#/]	2A\] 2d\] 2a\]	.
2r	2r	2r	.
*	*v	*v	*
==	==	==
*-	*-	*-
!!!ENC: Craig Stuart Sapp
!!!END: 2004/09/02/
